public/images/hashed/33e17139982ee9b80c0b0ba0902661d0.svg

<?xml version="1.0" encoding="UTF-8"?>
<svg width="80px" height="80px" viewBox="0 0 80 80" version="1.1" xmlns="http://www.w3.org/2000/svg" xmlns:xlink="http://www.w3.org/1999/xlink">
    <!-- Generator: Sketch 64 (93537) - https://sketch.com -->
    <title>Icon-Architecture/64/Arch_AWS-CloudEndure-Migration_64</title>
    <desc>Created with Sketch.</desc>
    <defs>
        <linearGradient x1="0%" y1="100%" x2="100%" y2="0%" id="linearGradient-1">
            <stop stop-color="#055F4E" offset="0%"></stop>
            <stop stop-color="#56C0A7" offset="100%"></stop>
        </linearGradient>
    </defs>
    <g id="Icon-Architecture/64/Arch_AWS-CloudEndure-Migration_64" stroke="none" stroke-width="1" fill="none" fill-rule="evenodd">
        <g id="Icon-Architecture-BG/64/Migration-Transfer" fill="url(#linearGradient-1)">
            <rect id="Rectangle" x="0" y="0" width="80" height="80"></rect>
        </g>
        <path d="M59.692,34.9896678 C59.254,31.2086678 57.269,28.4696678 54.301,27.6016678 C52.128,26.9676678 49.848,27.4996678 48.129,28.9596678 C47.221,26.9066678 46.032,25.1356678 44.578,23.6766678 C39.926,19.0106678 33.561,17.7456678 27.554,20.2906678 C22.427,22.4616678 18.562,28.4556678 18.562,34.2336678 C18.562,34.5786678 18.573,34.9236678 18.595,35.2666678 C15.8,36.1826678 11,38.7896678 11,45.8696678 C11,46.2466678 11.014,46.6116678 11.042,46.9666678 C11.473,52.4736678 14.106,56.0996678 18.265,56.9146678 L18.65,54.9516678 C14.253,54.0906678 13.245,49.4816678 13.036,46.8116678 C13.012,46.5076678 13,46.1936678 13,45.8696678 C13,39.7046678 17.271,37.6536678 19.86,36.9776678 C20.322,36.8866678 20.667,36.4786678 20.667,35.9946678 C20.667,35.9456678 20.663,35.8966678 20.656,35.8486678 C20.593,35.3196678 20.562,34.7766678 20.562,34.2336678 C20.562,29.2936678 23.976,23.9776678 28.334,22.1326678 C35.871,18.9396678 41.213,23.1356678 43.162,25.0896678 C44.746,26.6786678 45.982,28.7086678 46.837,31.1246678 C46.96,31.4726678 47.265,31.7256678 47.631,31.7806678 C47.992,31.8346678 48.363,31.6816678 48.584,31.3856678 C49.827,29.7006678 51.853,28.9706678 53.74,29.5216678 C56.011,30.1856678 57.504,32.4786678 57.749,35.6656678 L57.748,35.6706678 C57.669,36.2076678 58.033,36.7096678 58.568,36.8016678 C61.043,37.2266678 66.799,38.9696678 66.799,45.9556678 C66.799,54.2816678 58.744,55.0706678 58.485,55.0956678 L45.126,55.0956678 L45.124,57.0856678 L58.565,57.0926678 C58.668,57.0846678 68.799,56.1426678 68.799,45.9556678 C68.799,38.0336678 62.588,35.6626678 59.692,34.9896678 L59.692,34.9896678 Z M35.125,51.0956678 L37.125,51.0956678 L37.125,42.0956678 L28.125,42.0956678 L28.125,44.0956678 L33.816,44.0956678 L20.395,58.4116678 L21.854,59.7806678 L35.125,45.6246678 L35.125,51.0956678 Z M52.125,41.5166678 L33.85,60.7836678 L32.399,59.4076678 L50.716,40.0956678 L41.125,40.0956678 L41.125,38.0956678 L54.125,38.0956678 L54.125,51.0956678 L52.125,51.0956678 L52.125,41.5166678 Z" id="AWS-CloudEndure-Migration_Icon_64_Squid" fill="#FFFFFF"></path>
    </g>
</svg>

<svg xmlns="http://www.w3.org/2000/svg" width="80" height="80"><defs><linearGradient id="a" x1="0%" x2="100%" y1="100%" y2="0%"><stop offset="0%" stop-color="#055F4E"/><stop offset="100%" stop-color="#56C0A7"/></linearGradient></defs><g fill="none" fill-rule="evenodd"><path fill="url(#a)" d="M0 0h80v80H0z"/><path fill="#FFF" d="M59.692 34.99c-.438-3.781-2.423-6.52-5.391-7.388-2.173-.634-4.453-.102-6.172 1.358-.908-2.053-2.097-3.824-3.551-5.283-4.652-4.666-11.017-5.931-17.024-3.386-5.127 2.17-8.992 8.165-8.992 13.943 0 .345.011.69.033 1.033C15.8 36.183 11 38.79 11 45.87c0 .377.014.742.042 1.097.431 5.507 3.064 9.133 7.223 9.948l.385-1.963c-4.397-.861-5.405-5.47-5.614-8.14A11.972 11.972 0 0 1 13 45.87c0-6.165 4.271-8.216 6.86-8.892a1.003 1.003 0 0 0 .796-1.13 13.705 13.705 0 0 1-.094-1.614c0-4.94 3.414-10.256 7.772-12.101 7.537-3.193 12.879 1.003 14.828 2.957 1.584 1.589 2.82 3.619 3.675 6.035a1 1 0 0 0 1.747.26c1.243-1.684 3.269-2.414 5.156-1.863 2.271.664 3.764 2.957 4.009 6.144l-.001.005a1 1 0 0 0 .82 1.13c2.475.426 8.231 2.169 8.231 9.155 0 8.326-8.055 9.115-8.314 9.14H45.126l-.002 1.99 13.441.007c.103-.008 10.234-.95 10.234-11.137 0-7.922-6.211-10.293-9.107-10.966ZM35.125 51.096h2v-9h-9v2h5.691L20.395 58.412l1.459 1.369 13.271-14.156v5.47Zm17-9.58L33.85 60.785l-1.451-1.376 18.317-19.312h-9.591v-2h13v13h-2v-9.58Z"/></g></svg>
